X: 1
T: Togail Curs Air Leodhas
R: jig
M: 6/8
L: 1/8
K: Dmaj
f/g/|:a>gf e<dA|B<dd B<Af/g/|a>gf e<dA|B<gf e2 f/g/|
a>gf e<dA|B<dd B<AA|B>cd A2 f/g/|1 afe d2 f/g/:|2 afe d2 d/c/||
|:B2 c/d/ A2A|B<dd B<AA|B2 c/d/ d2 e/f/|g2 f/d/ e2 f/g/|
f2 e/d/ f<aa|B<dd B<AA|B2 c/d/ A2 f/g/|1 afe d2 d/c/:|2 afe d2 f/g/|

